X: 1
T: May Day
M: 4/4
L: 1/8
R: hornpipe
K: Gmaj
|:D2|GABG ABcA|defd dcBA|BcBG ABAG|FGAB cAGF|
GABG ABcA|defd dcBA|B2 d2 cAGF|DGGA G2:|
|:(3def| g2 eg f2 ed|g2 eg f2 ed|defg abag|f2 dd dedc|
B2 BG AF D2|BdBG ABcA|defd cAGF|DGGA G2:|
